X: 461
T: OLD ZIP COON--REEL
B: Ryan's Mammoth Collection of Fiddle Tunes
R: reel
M: 2/4
L: 1/16
Z: Contributed 20000515180839 by John Chambers
N:
N: OLD ZIP COON--First couple down the outside and back up the centre, (second
N: couple down the centre and back up the outside at same time.) First couple down
N: the centre and back up the outside, (second couple down the outside and back up
N: the centre at same time.) First and second couples down the centre together,
N: back.--First couple cast off, right and left four.
N:http://trillian.mit.edu/~jc/music/book/ryan-cole/Entry/jchambers:casc.com/OldZipCoonReel.abc 2001-11-28 01:21:48 UT
N:Posted to the woodenflute mailing list November 2001
N:Posted to woodenflute by James T. Peeples
K: A
(ucB) \
| AGAB .A2(CD) | EFEC .E2(AB) | c2c2 cBAB | c2B2B2 (cB) |
| AGAB .A2(CD) | EFEC .E2(AB) | cBcd ecAB | c2A2A2 :|
|: (AB) \
| cdef .e2(ed) | cdef .e2(ec) | defg .f2(fe) | defg .f2(fg) |
| agaf fece | cdcA .B2(AB) | .c2(cA) BAFA | E2A2A2 :|
<end>
<start>
